X: 5431
T: Bullock On The Bonnet, The
R: reel
M: 4/4
K: Dmajor
|:FBBA FADA|FBBA BcdA|FBBA FADg|1 fedf e3E:|2 fedf e3g:|
|:fedf edBd|fedf a3g|fedf edBA|(3 Bcd ed B4:|

